packages/calcite-ui-icons/icons/multiple-variables-set-32.svg

<?xml version="1.0" encoding="UTF-8"?><svg id="icons" xmlns="http://www.w3.org/2000/svg" viewBox="0 0 32 32"><defs><style>.cls-1{fill:none;}</style></defs><path d="M22,.21875c-3.18848,0-5.78125,2.59277-5.78125,5.78125s2.59277,5.78125,5.78125,5.78125,5.78125-2.59277,5.78125-5.78125S25.18848.21875,22,.21875ZM22,10.81836c-2.65625,0-4.81836-2.16211-4.81836-4.81836s2.16211-4.81836,4.81836-4.81836,4.81836,2.16211,4.81836,4.81836-2.16211,4.81836-4.81836,4.81836ZM1.02344,11.12695l2.60254,8.87305h9.63379l2.7207-8.87012-7.48047-5.76074L1.02344,11.12695ZM12.52051,19H4.37402l-2.19824-7.49805,6.32422-4.87109,6.32031,4.86816-2.2998,7.50098ZM21.5,14.23505l5.5,4.07404-.55823,1.69092h-5.44177c-.55231,0-1,.44769-1,1v4h-1.6015l-2.3985-6.69092,5.5-4.07404ZM21,21h3v1h-2v9h2v1h-3v-11ZM32,21v11h-3v-1h2v-9h-2v-1h3Z"/><rect class="cls-1" width="32" height="32"/></svg>

<svg xmlns="http://www.w3.org/2000/svg" viewBox="0 0 32 32"><path d="M22 .219c-3.188 0-5.781 2.593-5.781 5.781s2.593 5.781 5.781 5.781S27.781 9.188 27.781 6 25.188.219 22 .219zm0 10.6c-2.656 0-4.818-2.163-4.818-4.819S19.344 1.182 22 1.182 26.818 3.344 26.818 6 24.656 10.818 22 10.818zm-20.977.308L3.626 20h9.634l2.72-8.87L8.5 5.37l-7.477 5.757zM12.521 19H4.374l-2.198-7.498L8.5 6.631l6.32 4.868L12.52 19zm8.979-4.765L27 18.31 26.442 20H21a1 1 0 0 0-1 1v4h-1.601L16 18.31l5.5-4.075zM21 21h3v1h-2v9h2v1h-3V21zm11 0v11h-3v-1h2v-9h-2v-1h3z"/><path fill="none" d="M0 0h32v32H0z"/></svg>
